images/fxs.svg

<svg height="250" viewBox="0 0 250 250" width="250" xmlns="http://www.w3.org/2000/svg"><path d="m-94.646332 176.332886c0 55.447888-44.949419 100.397308-100.397308 100.397308s-100.397308-44.94942-100.397308-100.397308c0-55.447889 44.949419-100.397309 100.397308-100.397309s100.397308 44.94942 100.397308 100.397309zm0 0" fill-rule="evenodd" stroke="#000" stroke-width=".436504" transform="matrix(1.242369 0 0 1.242369 367.316105 -94.07045)"/><path d="m69.71875 53.917969-8.359375 8.363281 10.578125 10.582031 10.605469 10.578125-.878907 2.589844c-1.132812 3.394531-1.59375 6.234375-1.59375 10 0 12.265625 6.421876 22.707031 17.785157 28.921875 4.574219 2.496094 12.429687 5.3125 21.136719 7.554687 17.003906 4.367188 19.613281 5.128907 22.964843 6.699219 4.574219 2.171875 6.835938 4.527344 7.785157 8.085938.414062 1.546875.390624 5.011719-.023438 6.675781-1.0625 4.042969-4.503906 8.109375-8.78125 10.324219-5.773438 3.027343-15.820312 3.859375-23.398438 1.917969-2.820312-.691407-6.816406-2.65625-8.824218-4.296876-4.089844-3.371093-7.277344-9.195312-8.6875-15.914062-.230469-1.0625-.414063-1.964844-.4375-2.011719-.070313-.09375-23.722656 2.21875-23.839844 2.355469-.09375.070312-.023438 1.039062.136719 2.148438.742187 5.335937 2.613281 11.691406 4.761719 16.101562l1.246093 2.566406-10.28125 10.277344-10.253906 10.28125 16.746094 16.746094 10.605469-10.601563 10.578124-10.582031 1.824219.761719c9.65625 4.066406 24.140625 5.339843 38.1875 3.304687 3.371094-.484375 8.246094-1.640625 10.808594-2.585937l1.527344-.554688 20.257812 20.257813 16.746094-16.746094-18.78125-18.78125 1.179687-2.402344c2.449219-4.921875 3.464844-9.101562 3.671876-14.855468.371093-10.972657-2.46875-19.242188-8.9375-26.054688-6.746094-7.09375-14.347657-10.464844-35.808594-15.871094-15.128906-3.789062-21.644532-6.398437-24.230469-9.679687-2.5625-3.234375-2.796875-7.761719-.554687-11.066407 1.292968-1.914062 4.480468-3.972656 7.945312-5.125 3.90625-1.316406 10.464844-1.917968 15.339844-1.410156 10.28125 1.085938 15.453125 5.472656 17.71875 15.085938.277344 1.175781.53125 2.167968.554687 2.214844.046875.070312 16.769531-.53125 21.78125-.785157l2.867188-.136719-.164063-2.011718c-.320312-4.089844-1.128906-7.738282-2.609375-11.550782l-.808593-2.148437 10.417968-10.441406 10.417969-10.417969-8.359375-8.382812-8.386719-8.363282-10.535156 10.53125-10.554687 10.558594-2.566407-.96875c-6.304687-2.359375-12.402343-3.398438-21.390625-3.652344-9.816406-.253906-18.433594 1.015625-25.039062 3.695313l-2.449219.996093-10.628906-10.582031-10.625-10.578125zm0 0" fill="#fff"/></svg>

<svg xmlns="http://www.w3.org/2000/svg" xmlns:xlink="http://www.w3.org/1999/xlink" width="250px" height="250px" viewBox="0 0 250 250" version="1.1">
<g id="surface1">
<path style="fill-rule:evenodd;fill:rgb(0%,0%,0%);fill-opacity:1;stroke-width:0.436504;stroke-linecap:butt;stroke-linejoin:miter;stroke:rgb(0%,0%,0%);stroke-opacity:1;stroke-miterlimit:4;" d="M -94.646332 176.332886 C -94.646332 231.780774 -139.595751 276.730194 -195.04364 276.730194 C -250.491529 276.730194 -295.440948 231.780774 -295.440948 176.332886 C -295.440948 120.884997 -250.491529 75.935577 -195.04364 75.935577 C -139.595751 75.935577 -94.646332 120.884997 -94.646332 176.332886 Z M -94.646332 176.332886 " transform="matrix(1.242369,0,0,1.242369,367.316105,-94.07045)"/>
<path style=" stroke:none;fill-rule:nonzero;fill:rgb(100%,100%,100%);fill-opacity:1;" d="M 69.71875 53.917969 L 61.359375 62.28125 L 71.9375 72.863281 L 82.542969 83.441406 L 81.664062 86.03125 C 80.53125 89.425781 80.070312 92.265625 80.070312 96.03125 C 80.070312 108.296875 86.492188 118.738281 97.855469 124.953125 C 102.429688 127.449219 110.285156 130.265625 118.992188 132.507812 C 135.996094 136.875 138.605469 137.636719 141.957031 139.207031 C 146.53125 141.378906 148.792969 143.734375 149.742188 147.292969 C 150.15625 148.839844 150.132812 152.304688 149.71875 153.96875 C 148.65625 158.011719 145.214844 162.078125 140.9375 164.292969 C 135.164062 167.320312 125.117188 168.152344 117.539062 166.210938 C 114.71875 165.519531 110.722656 163.554688 108.714844 161.914062 C 104.625 158.542969 101.4375 152.71875 100.027344 146 C 99.796875 144.9375 99.613281 144.035156 99.589844 143.988281 C 99.519531 143.894531 75.867188 146.207031 75.75 146.34375 C 75.65625 146.414062 75.726562 147.382812 75.886719 148.492188 C 76.628906 153.828125 78.5 160.183594 80.648438 164.59375 L 81.894531 167.160156 L 71.613281 177.4375 L 61.359375 187.71875 L 78.105469 204.464844 L 88.710938 193.863281 L 99.289062 183.28125 L 101.113281 184.042969 C 110.769531 188.109375 125.253906 189.382812 139.300781 187.347656 C 142.671875 186.863281 147.546875 185.707031 150.109375 184.761719 L 151.636719 184.207031 L 171.894531 204.464844 L 188.640625 187.71875 L 169.859375 168.9375 L 171.039062 166.535156 C 173.488281 161.613281 174.503906 157.433594 174.710938 151.679688 C 175.082031 140.707031 172.242188 132.4375 165.773438 125.625 C 159.027344 118.53125 151.425781 115.160156 129.964844 109.753906 C 114.835938 105.964844 108.320312 103.355469 105.734375 100.074219 C 103.171875 96.839844 102.9375 92.3125 105.179688 89.007812 C 106.472656 87.09375 109.660156 85.035156 113.125 83.882812 C 117.03125 82.566406 123.589844 81.964844 128.464844 82.472656 C 138.746094 83.558594 143.917969 87.945312 146.183594 97.558594 C 146.460938 98.734375 146.714844 99.726562 146.738281 99.773438 C 146.785156 99.84375 163.507812 99.242188 168.519531 98.988281 L 171.386719 98.851562 L 171.222656 96.839844 C 170.902344 92.75 170.09375 89.101562 168.613281 85.289062 L 167.804688 83.140625 L 178.222656 72.699219 L 188.640625 62.28125 L 180.28125 53.898438 L 171.894531 45.535156 L 161.359375 56.066406 L 150.804688 66.625 L 148.238281 65.65625 C 141.933594 63.296875 135.835938 62.257812 126.847656 62.003906 C 117.03125 61.75 108.414062 63.019531 101.808594 65.699219 L 99.359375 66.695312 L 88.730469 56.113281 L 78.105469 45.535156 Z M 69.71875 53.917969 "/>
</g>
</svg>
